X: 20243
Q: "Moderate."
M: C
L: 1/8
K: F
(A>G) |\
(dc)(fe) (dc)(f>A) | {A2}G4 z2(A>G) |\
(eg) (f/e/d/c/) e2d2 | c6 :|
|: G2 |\
(c>d)(e>f) g3e | (fd)(e^c) d3=c |\
(dc)(BA) (f>g)({fg}a>A) | {A2}G4 z2A>G |\
(fc) (dc/B/) A2G2 | F6 :|


